X: 16158
T: Green Lane, The
R: reel
M: 4/4
K: Gmajor
|:DF|G z Bd dBG=F|ECCE GECD|G2 z B BddB|AFFG Addc|
BGGB dBBG|ECCE GECE|G G/G/G B BddB|AFDF G2:|
|:z F|G G/G/G B dBGB|c c/c/c d eddc|BGGB ^cddB|AFFG Addc|
BGGF FGAG|ECC=F EG,CD|G G/G/G B BddB|AFDF G2:|

